icons/svg/shields/h_picnic_table.svg

<?xml version="1.0" encoding="UTF-8" standalone="no"?>
<svg
   xmlns:dc="http://purl.org/dc/elements/1.1/"
   xmlns:cc="http://creativecommons.org/ns#"
   xmlns:rdf="http://www.w3.org/1999/02/22-rdf-syntax-ns#"
   xmlns:svg="http://www.w3.org/2000/svg"
   xmlns="http://www.w3.org/2000/svg"
   xmlns:sodipodi="http://sodipodi.sourceforge.net/DTD/sodipodi-0.dtd"
   xmlns:inkscape="http://www.inkscape.org/namespaces/inkscape"
   width="16"
   height="16"
   viewBox="0 0 16 16"
   version="1.1"
   id="svg4"
   sodipodi:docname="h_picnic_table.svg"
   inkscape:version="0.92.5 (2060ec1f9f, 2020-04-08)"
   style="fill:none">
  <metadata
     id="metadata10">
    <rdf:RDF>
      <cc:Work
         rdf:about="">
        <dc:format>image/svg+xml</dc:format>
        <dc:type
           rdf:resource="http://purl.org/dc/dcmitype/StillImage" />
        <dc:title></dc:title>
      </cc:Work>
    </rdf:RDF>
  </metadata>
  <defs
     id="defs8" />
  <sodipodi:namedview
     pagecolor="#ffffff"
     bordercolor="#666666"
     borderopacity="1"
     objecttolerance="10"
     gridtolerance="10"
     guidetolerance="10"
     inkscape:pageopacity="0"
     inkscape:pageshadow="2"
     inkscape:window-width="1920"
     inkscape:window-height="1014"
     id="namedview6"
     showgrid="false"
     inkscape:zoom="14.75"
     inkscape:cx="8.736246"
     inkscape:cy="13.219903"
     inkscape:window-x="1920"
     inkscape:window-y="0"
     inkscape:window-maximized="1"
     inkscape:current-layer="svg4" />
  <path
     sodipodi:type="inkscape:offset"
     inkscape:radius="0.89172518"
     inkscape:original="M 2.6660156 4 L 2.6660156 6.6660156 L 6 6.6660156 L 2.6660156 13.333984 L 4 13.333984 L 7.3339844 6.6660156 L 8.6660156 6.6660156 L 12 13.333984 L 13.333984 13.333984 L 10 6.6660156 L 13.333984 6.6660156 L 13.333984 4 L 2.6660156 4 z "
     style="opacity:0.81199999;vector-effect:none;fill:#ebe7e4;fill-opacity:1;stroke-width:0.58616424;stroke-linecap:butt;stroke-linejoin:miter;stroke-miterlimit:4;stroke-dasharray:none;stroke-dashoffset:0;stroke-opacity:1"
     id="path2"
     d="M 2.6660156,3.1074219 A 0.89181436,0.89181436 0 0 0 1.7734375,4 V 6.6660156 A 0.89181436,0.89181436 0 0 0 2.6660156,7.5585938 H 4.5585938 L 1.8691406,12.935547 a 0.89181436,0.89181436 0 0 0 0.796875,1.291015 H 4 a 0.89181436,0.89181436 0 0 0 0.796875,-0.49414 L 7.8847656,7.5585938 H 8.1152344 L 11.203125,13.732422 A 0.89181436,0.89181436 0 0 0 12,14.226562 h 1.333984 a 0.89181436,0.89181436 0 0 0 0.796875,-1.291015 L 11.441406,7.5585938 h 1.892578 A 0.89181436,0.89181436 0 0 0 14.226562,6.6660156 V 4 A 0.89181436,0.89181436 0 0 0 13.333984,3.1074219 Z"
     transform="matrix(0.8,0,0,0.8,1.5999999,1.7333984)" />
</svg>

<svg width="16" height="16" fill="none" version="1.1" viewBox="0 0 16 16" xmlns="http://www.w3.org/2000/svg">
 <path transform="matrix(.8 0 0 .8 1.6 1.7334)" d="m2.666 3.1074a0.89181 0.89181 0 0 0-0.89258 0.89258v2.666a0.89181 0.89181 0 0 0 0.89258 0.89258h1.8926l-2.6895 5.377a0.89181 0.89181 0 0 0 0.79688 1.291h1.334a0.89181 0.89181 0 0 0 0.79688-0.49414l3.0879-6.1738h0.23047l3.0879 6.1738a0.89181 0.89181 0 0 0 0.79688 0.49414h1.334a0.89181 0.89181 0 0 0 0.79688-1.291l-2.6895-5.377h1.8926a0.89181 0.89181 0 0 0 0.89258-0.89258v-2.666a0.89181 0.89181 0 0 0-0.89258-0.89258z" fill="#ebe7e4" opacity=".812" stroke-width=".58616"/>
</svg>
